!!!COM: Chopin, Frederic
!!!CDT: 1810///-1849///
!!!OTL: Mazurka in E Minor, Op. 41, No. 2
!!!OPS: Op. 41
!!!ONM: No. 2
!!!OMD: Andantino.
!!!ODT: 1838/11/28/
!!!PDT: 1840///
!!!PPP: Leipzig, Paris and London (1840)
!!!ODE: Stefan Witwicki
!!!AIN: piano
**kern	**kern	**dynam
*staff2	*staff1	*staff1/2
*clefF4	*clefG2	*clefG2
*k[f#]	*k[f#]	*k[f#]
*e:	*e:	*e:
*M3/4	*M3/4	*M3/4
*MM89.4	*MM89.4	*MM89.4
=1-	=1-	=1-
*	*^	*
4E	4d 4e 4g# (>4b	2ryy	p
4E	4d 4e 4g# 4b	.	.
4E	8.ccL	4d 4e 4g#	.
.	16bJk	.	.
=2	=2	=2	=2
2.AA 2.E	4b	2.c 2.e	.
.	8.aL	.	.
.	16g#Jk	.	.
.	4a)	.	.
*	*v	*v	*
=3	=3	=3
*^	*	*
2ryy	4BB	4A< 4B< 4d# (>4f#	.
.	4BB	4A< 4B< 4d# 4f#	.
4A 4B 4d#	4BB	8.gnL	.
.	.	16f#Jk	.
=4	=4	=4	=4
4A 4c	2.EE 2.E	8f#L	.
.	.	8e	.
.	.	(8qf#	.
2G 2B	.	8e)	.
.	.	8d#J	.
.	.	4e)	.
*v	*v	*	*
=5	=5	=5
*	*^	*
4E	2ryy	4dn 4e 4g# (>4b	.
4E	.	4d 4e 4g# 4b	.
4E	8.ccL	4d 4e 4g#	.
.	16bJk	.	.
!!LO:LB:g=original
=6	=6	=6	=6
2.AA 2.E	8eeL	4d 4e 4g#	.
.	8b	.	.
.	(16qaLL	.	.
.	16qbJJ	.	.
.	8a)	[2c	.
.	8g#J	.	.
.	4a	.	.
*	*v	*v	*
=7	=7	=7
8cL	8ccL]	.
8GnJ	8gnJ	.
4Fn	4fn	.
8.EL	8.eL	.
16GJk	16gJk	.
=8	=8	=8
*^	*	*
*	*^	*	*
4rc	4rGG	2E/	2e)	.
4G 4B	4EE 4BB	.	.	.
4r	4r	4ryy	(4b	.
*v	*v	*v	*	*
=9	=9	=9
*	*^	*
4r	4ryy	4b	.
4E	4b	4d 4e 4g#	.
4E	8.ccL	4d 4e 4g#	.
.	16bJk	.	.
=10	=10	=10	=10
2.AA 2.E	4b	2.c 2.e	.
.	8.aL	.	.
.	16g#Jk	.	.
.	4a)	.	.
*	*v	*v	*
=11	=11	=11
*^	*	*
2ryy	4BB	4A< 4B< 4d# (>4f#	.
.	4BB	4A< 4B< 4d# 4f#	.
4A 4B 4d#	4BB	8.gnL	.
.	.	16f#Jk	.
!!LO:LB:g=original
=12	=12	=12	=12
4A 4c	2.EE 2.E	8f#L	.
.	.	8e	.
.	.	(8qf#	.
2G 2B	.	8e)	.
.	.	8d#	.
.	.	8e	.
.	.	8gJ	.
*v	*v	*	*
=13	=13	=13
*	*^	*
4r	4ryy	4b)	.
4E	(4b	4dn 4e 4g#	.
4E	8.ccL	4d 4e 4g#	.
.	16bJk	.	.
=14	=14	=14	=14
2.AA 2.E	8eeL	4d 4e 4g#	.
.	8b	.	.
.	(16qaLL	.	.
.	16qbJJ	.	.
!	!	!LO:TX:b:i:t=m.g.	!
.	8a)	[2c	.
.	8g#J	.	.
.	4a	.	.
*	*v	*v	*
=15	=15	=15
8cL	8ccL]	.
8GnJ	8gnJ	.
4Fn	4fn	.
8.EL	8.eL	.
16GJk	16gJk	.
=16	=16	=16
*^	*	*
*	*^	*	*
4rc	2.E/	4rGG	2.e)	.
4G 4B	.	4EE 4BB	.	.
4G 4B	.	4EE [4BB	.	.
*	*v	*v	*	*
!!LO:LB:g=original
=17	=17	=17	=17
*ped	*	*	*
4rA	4BBB 4BB]	(>2d#	f <
4F# 4B	4BB	.	.
*Xped	*	*	*
4ryy	[4BB [>4F#	4c# 4e	.
*v	*v	*	*
=18	=18	=18
*	*^	*
4BB] 4F#]	4d# 4f#	4ryy	.
*ped	*	*	*
4BB 4F# 4B	4..dd#	4d# 4f#	.
[4BB [<4F# [4B	.	[4d# [4f#	[
.	16dd#	.	.
=19	=19	=19	=19
4BB] 4F#] 4B]	2dd#	4d#] 4f#]	.
*Xped	*	*	*
4BB 4F# 4c#	.	4e 4g#	.
*ped	*	*	*
[4BB [<4F# [4c#	4dd#^	[4e [4a#	.
=20	=20	=20	=20
4BB] 4F#] 4c#]	2dd#	4e] 4a#]	.
*Xped	*	*	*
4BB 4F# 4c#	.	4e 4g#	>
4BB 4F# 4c#	4dd#^	4e 4a#	]
*	*v	*v	*
=21	=21	=21
*ped	*	*
4BBB	4d# 4b 4dd#)	.
4BB 4F#	(>(8B 8d#L	<
.	8c# 8e	.
[4BB [4F#	8f# 8a#	.
*Xped	*	*
.	8e 8g#J	.
=22	=22	=22
*	*^	*
4BB] 4F#]	4d#) 4f#	4ryy	.
*ped	*	*	*
4BB 4F# 4B	4..dd#	4d# 4f#	[
4BB 4F# 4B	.	4d# 4f#	.
*Xped	*	*	*
.	16dd#	.	.
!!LO:LB:g=original
=23	=23	=23	=23
4r	2dd#	4r	p
4D# 4A#	.	4e# 4g#	.
[4D# [4A#	4dd#^	[4f# [4a#	.
=24	=24	=24	=24
4D#] 4A#]	2dd#	4f#] 4a#]	.
4D# 4A#	.	4e# 4g#	.
4D# 4A#	4dd#^	[4f# 4a#	.
=25	=25	=25	=25
*ped	*	*	*
4BBB	4b 4dd#)	4f#]	f
*Xped	*	*	*
4BB 4F#	2ryy	4B^/ (>4d#^/	<
[4BB [4F#	.	4c#/ 4en/	.
=26	=26	=26	=26
4BB] 4F#]	4r	&4d#&) 4f#	.
*ped	*	*	*
4BB 4F# 4B	4..dd#	4d# 4f#	[
[4BB [4F# [4B	.	[4d# [4f#	.
.	16dd#	.	.
=27	=27	=27	=27
4BB] 4F#] 4B]	2dd#	4d#] 4f#]	.
*Xped	*	*	*
4BB 4F# 4c#	.	4e 4g#	.
*ped	*	*	*
[4BB [4F# [4c#	4dd#	[4e [4a#	.
=28	=28	=28	=28
4BB] 4F#] 4c#]	2dd#	4e] 4a#]	.
*Xped	*	*	*
4BB 4F# 4c#	.	4e 4g#	>
4BB 4F# 4c#	4dd#	4e 4a#	.
*	*v	*v	*
!!LO:LB:g=original
=29	=29	=29
*ped	*	*
4BBB	4d# 4b 4dd#)	]
4BB 4F#	8B (>8d#L	<
.	8c# 8e	.
*Xped	*	*
!	!LO:TUP:b	!
[4BB [4F#	12f# 12a#	.
.	12e 12g#	.
.	12d# 12f#J	.
=30	=30	=30
*	*^	*
4BB] 4F#]	4ryy	4d# 4f#	[
*ped	*	*	*
4BB 4F# 4B	4..dd#	4d# 4f#	.
4BB 4F# 4B	.	4d# 4f#	.
*Xped	*	*	*
.	16dd#	.	.
=31	=31	=31	=31
4r	2dd#	4r	f
4D# 4A#	.	4e# 4g#	.
[4D# [4A#	4dd#^	[4f# [4a#	.
=32	=32	=32	=32
4D#] 4A#]	2dd#	4f#] 4a#]	>
4D# 4A#	.	4e# 4g#	.
4D# 4A#	4dd#)	4f# 4a#	]
=33	=33	=33	=33
*ped	*	*	*
4GG#	(4dd#	4r	<
4G# 4d#	4.een	4f# 4b#	.
*Xped	*	*	*
4G# 4d#	.	[4f# 4b#	.
.	8dd#	.	[
!!LO:LB:g=original
=34	=34	=34	=34
*^	*	*	*
(4A	2.C#	8cc#LM	4f#]	.
.	.	8b#J	.	.
4G#	.	2cc#	4e	.
4Gn	.	.	4bn	.
=35	=35	=35	=35	=35
*ped	*	*	*	*
4FF#)	4ryy	8dd#L	4a#	.
.	.	8cc#	.	.
8BL	4F#	8g#	4e	.
*Xped	*	*	*	*
8A#	.	8f#	.	.
8G#	4r	8b	4e	.
8F#J	.	8cc#J	.	.
=36	=36	=36	=36	=36
*ped	*	*	*	*
4r	&(2BB&	2.dd#)	4r	.
4F# 4B	.	.	4d#	.
4r	4AA#	.	4d#	.
*Xped	*	*	*	*
=37	=37	=37	=37	=37
*ped	*	*	*	*
4r	2GG#	(4b	4r	.
*Xped	*	*	*	*
4E# 4B	.	4.cc#	4d# 4g#	.
4r	4EE#	.	4d# 4g#	.
.	.	8b	.	.
=38	=38	=38	=38	=38
*ped	*	*	*	*
.	.	(16qa#LL	.	.
.	.	16qbJJ	.	.
4r	2AA#	8a#yL)	4r	.
.	.	8g##J	.	.
*Xped	*	*	*	*
4E# 4A#	.	2a#	4c## 4g#)	.
4r	4EE#	.	4c## 4g#	.
!!LO:LB:g=original
=39	=39	=39	=39	=39
4rF	2FF##	(4a#	4r	.
4En	.	4.b	4c#	.
4D#	4DD#	.	[4c# 4f##	.
.	.	8f##	.	.
=40	=40	=40	=40	=40
4rF	2GG#	8a#L	4c#]	.
.	.	8anJ	.	.
4D#	.	4g#	4B	.
4F#	4AA#	8f#XL	[4c#	.
.	.	8eJ)	.	.
*v	*v	*	*	*
=41	=41	=41	=41
*ped	*	*	*
4BBB	(2d#	4c#]	f <
4BB	.	4F# 4B	.
[4BB [4F#	4r	4c# 4e	.
*Xped	*	*	*
=42	=42	=42	=42
4BB] 4F#]	4d# 4f#	4r	.
*ped	*	*	*
4BB 4F# 4B	4..dd#	4d# 4f#	.
[4BB [<4F# [4B	.	[4d# [4f#	.
*Xped	*	*	*
.	16dd#	.	[
=43	=43	=43	=43
*ped	*	*	*
4BB] 4F#] 4B]	2dd#	4d#] 4f#]	.
*Xped	*	*	*
4BB 4F# 4c#	.	4e 4g#	.
*ped	*	*	*
[4BB [4F# [4c#	4dd#^	[4e [4a#	.
=44	=44	=44	=44
4BB] 4F#] 4c#]	2dd#	4e] 4a#]	.
*Xped	*	*	*
4BB 4F# 4c#	.	4e 4g#	.
4BB 4F# 4c#	4dd#^	4e 4a#	.
*	*v	*v	*
!!LO:LB:g=original
=45	=45	=45
*ped	*	*
4BBB	4d# 4b 4dd#)	.
4BB 4F#	(>8B (<8d#L	<
*Xped	*	*
.	8c# 8e	.
[4BB [4F#	8f# 8a#	.
.	8e 8g#J	.
=46	=46	=46
*	*^	*
4BB] 4F#]	4ryy	4d# 4f#)	[
*ped	*	*	*
4BB 4F# 4B	4..dd#	4d# 4f#	.
*Xped	*	*	*
4BB 4F# 4B	.	4d# 4f#	.
.	16dd#	.	.
=47	=47	=47	=47
4r	2dd#	4r	.
4D# 4A#	.	4e# 4g#	.
[4D# [4A#	4dd#^	[4f# [4a#	.
=48	=48	=48	=48
4D#] 4A#]	2dd#	4f#] 4a#]	>
4D# 4A#	.	4e# 4g#	.
4D# 4A#	4dd#^	[4f# 4a#	]
=49	=49	=49	=49
*ped	*	*	*
4BBB	4dd#)	4f#] 4b	.
4BB 4F#	2ryy	4B^> (>4d#^>	<
[4BB [4F#	.	4c# 4en	.
*Xped	*	*	*
=50	=50	=50	=50
4BB] 4F#]	4ryy	&(4d#& 4f#	[
*ped	*	*	*
4BB 4F# 4B	4..dd#	4d# 4f#	.
[4BB [4F# [4B	.	[4d# [4f#	.
.	16dd#	.	.
!!LO:LB:g=original
=51	=51	=51	=51
4BB] 4F#] 4B]	2dd#	4d#] 4f#]	.
*Xped	*	*	*
*ped	*	*	*
4BB 4F# 4c#	.	4e 4g#	.
[4BB [4F# [4c#	4dd#^	[4e [4a#	.
=52	=52	=52	=52
4BB] 4F#] 4c#]	2dd#	4e] 4a#]	.
*Xped	*	*	*
4BB 4F# 4c#	.	4e 4g#	.
4BB 4F# 4c#	4dd#^	4e 4a#	.
*	*v	*v	*
=53	=53	=53
*ped	*	*
4BBB	4d# 4b 4dd#)	.
4BB 4F#	(>8B (8d#L	<
.	8c# 8e	.
*Xped	*	*
!	!LO:TUP:b	!
[4BB [4F#	12f# 12a#	.
.	12e 12g#	.
.	12d# 12f#J	.
=54	=54	=54
*	*^	*
4BB] 4F#]	4ryy	4d#) 4f#	[
*ped	*	*	*
4BB 4F# 4B	4..dd#	4d# 4f#	.
4BB 4F# 4B	.	4d# 4f#	.
*Xped	*	*	*
.	16dd#	.	.
=55	=55	=55	=55
4r	2dd#	4r	.
4D# 4A#	.	4e# 4g#	<
[4D# [4A#	4dd#^	[4f# [4a#	.
=56	=56	=56	=56
4D#] 4A#]	2dd#	4f#] 4a#]	.
4D# 4A#	.	4e# 4g#	.
4D# 4A#	4dd#^	4f# 4a#	[
!!LO:LB:g=original
=57	=57	=57	=57
*^	*	*	*
2ryy	4Dn 4G# 4B	2ryy	4en 4b 4een	ff
!	!LO:TX:i:a:t=sostenuto.	!	!	!
.	4D 4E 4G# 4B	.	4e 4b 4ee	.
8.cnL	4D 4E 4G#	8.ccnL	4e 4ee	.
16BJk	.	16bJk	.	.
*	*	*v	*v	*
=58	=58	=58	=58
*	*	*^	*
4B	2.C 2.E	2.e 2.ee	4b/	.
8.AL	.	.	8.aL>	.
16G#Jk	.	.	16g#Jk	.
4A	.	.	4a/)	.
=59	=59	=59	=59	=59
*ped	*	*	*	*
2.ryy	4BBB 4BB	2ryy	4A< 4B< (4d# 4f# 4b	.
.	4BBB 4BB	.	4A< 4B< 4d# 4f# 4b	.
.	4BBB 4BB	4A< 4B< 4d# 4b	(8.gnL>	.
*Xped	*	*	*	*
.	.	.	16f#Jk)	.
=60	=60	=60	=60	=60
(8AL	2.EE 2.BB	2.B 2.b	(<8f#L	.
8G	.	.	8e	.
.	.	.	(<8qf#	.
8G	.	.	8e)	.
8F#J	.	.	8d#J)	.
4G)	.	.	4e)	.
*v	*v	*	*	*
=61	=61	=61	=61
*ped	*	*	*
4EE 4E	2ryy	4dn\ 4e\ 4g#\ 4b\ (4ee\	.
4E 4B	.	4d\ 4e\ 4g#\ 4b\ 4ee\	.
*Xped	*	*	*
4E 4B	8.ccL	4d 4e 4g# 4ee	.
.	16bJk	.	.
*	*v	*v	*
=62	=62	=62
*^	*^	*
*	*	*	*^	*
4r	2.AA 2.E	2.ee	8bL>	4d 4e 4g#	.
.	.	.	8a	.	.
.	.	.	(8qb	.	.
(8cL	.	.	8a)	4rc	.
8BJ	.	.	8g#J	.	.
[4c)	.	.	4a/)	4rc	.
*v	*v	*	*	*	*
*	*v	*v	*v	*
!!LO:LB:g=original
=63	=63	=63
(8cL]	(>8ccL	.
8GnJ	8gnJ	.
4Fn	4fn	>
8.EL	8.eL	.
16GJk	16gJk	.
=64	=64	=64
*^	*	*
*	*^	*	*
4r	[>2E/)	4r	[2e	.
!LO:TX:a:i:t=r.h.	!	!	!	!
4G 4B	.	4EE 4BB	.	.
4A 4c	8.EL>]	4AA	8.eL]	.
.	16GJk	.	16gJk	.
=65	=65	=65	=65	=65
4r	[>2E/	4r	[2e	.
4G 4B	.	4EE 4BB	.	.
4A 4c	8.EL]	4AA	8.eL]	.
.	16GJk	.	16gJk	.
=66	=66	=66	=66	=66
4rc	2E/	4rGG	2e	.
4A 4c	.	4AA	.	.
4re	4G	4rGG	4g	.
*v	*v	*v	*	*
=67	=67	=67
!	!LO:TX:b:i:t=rallent.	!
8cL	8ccL	.
8GJ	8gJ	.
4Fn	4fn	.
8.EL	8.eL	.
16GJk	16gJk	.
=68	=68	=68
*^	*	*
*	*^	*	*
4rc	2.E;>/	4rGG	2.e;)	.
2G; 2B;	.	2EE;< 2BB;<	.	.
*v	*v	*v	*	*
==	==	==
*-	*-	*-
!!!SMS: Mikuli edition, G. Schirmer (1894-1898)
!!!ENC: Craig Stuart Sapp
!!!END: 2005/03/12/
!!!EEV: 2020/03/28/
!!!RDF**kern: > = above
!!!RDF**kern: < = below
